X: 22636
T: Laington's
R: reel
M: 4/4
K: Amajor
|:AFEF A3 e|fece faaf|ec (3 ccc acec|fcec BABc|
AFEF A3 e|fece faaf|ec (3 ccc acec|1 BAGB A2 cB:|2 BAGB A2 ed||
ceAe ceAe|BE (3EEE BcdB|cA (3AAA cdec|BE (3EEE BcdB|
AccB cedc|ABBA BcdB|ABce faaf|ec (3ccc d2 cB||

